X:1
T:Title
%%score 1 { 2 | 3 }
L:1/8
Q:1/4=103
M:6/8
K:A
V:1 treble nm="Grand Piano, Soprano"
V:2 bass nm="Choir Pad, O Jesus, Receive Me"
V:3 bass 
V:1
 [CE] [CE]2 [CE][CE][A,C] | [CE] [EA]2 [EA] [EA]2- | [EA] [GB]2 [GB] [GB]2 | A [Ac]2 [Ac] [Ac]2 | %4
w: By~Rufus~Henry~Cornelius * * * *||||
 [CE] [CE]2 [CE][CE][A,C] | [CE] [EA]2 [EA] [EA]2 | [Ec] [FB]2 [FA] [Ac]2 | %7
w: |||
 [EB] [EA]2- [EA]2- [EA]/ z/ | z [Ac]2- [Ac][FB][FA] | [DF] [CE]2- [CE] [EA]2- | %10
w: |||
 [EA] [EB]2- [EB][EB][EA] | [EB] [Ec]2- [Ec] [EA]2- | [EA] [Ac]2- [Ac][FB][FA] | %13
w: |||
 [DF] [CE]2- [CE] [EA]2 | [Ec] [FB]2 [FA] [Ac]2 | [EB] [EA]2- [EA]3- | [EA]3 z3 |] %17
w: ||||
V:2
 A, A,2 A,A,E, | A,[K:treble] C2 C C2- | C D2 D D2 | C E2 E E2 | A, A,2 A,A,E, | %5
 A,[K:treble] C2 C C2 | E D2 F E2 | D C2- C2- C/ z/ | z E2- EDD | A, A,2- A, A,2- | %10
 A, G,2- G,G,A, | G, A,2- A,/ z/[K:treble] C2- | C E2- EDD | A, A,2- A, C2 | E[K:treble] D2 F E2 | %15
 D C2- C3- | C3 z3 |] %17
V:3
 A,, A,,2 A,, A,,2 | A,, A,,2 A,, A,,2- | A,, E,2 E, E,2- | E, A,2 A, A,2 | A,, A,,2 A,, A,,2 | %5
 A,, A,,2 A,, A,,2 | A,, D,2 D, E,2 | E, A,,2- A,,2- A,,/ z/ | z A,2- A,D,D, | D, A,,2- A,, C,2- | %10
 C, E,2- E,E,C, | .E,3 z A,2- | A, A,2- A,D,D, | D, A,,2- A,, A,,2 | A,, D,2 D, E,2 | %15
 E, A,,2- A,,3- | A,,3 z3 |] %17

